public/illustrations/pointer.svg

<?xml version="1.0" encoding="UTF-8"?>
<svg width="602px" height="778px" viewBox="0 0 602 778" version="1.1" xmlns="http://www.w3.org/2000/svg" xmlns:xlink="http://www.w3.org/1999/xlink">
    <!-- Generator: Sketch 48.2 (47327) - http://www.bohemiancoding.com/sketch -->
    <title>Shape</title>
    <desc>Created with Sketch.</desc>
    <defs></defs>
    <g id="illistrations" stroke="none" stroke-width="1" fill="none" fill-rule="evenodd">
        <path d="M178.245691,18.2641906 L178.245691,35.5283813 L213.349545,35.5283813 L248.453399,35.5283813 L248.453399,23.6045803 C248.453399,17.0453388 248.124229,9.276453 247.721398,6.34038964 L246.989396,1 L212.617543,1 L178.245691,1 L178.245691,18.2641906 M152.637141,36.3628172 L142.566363,36.7691011 L142.566363,194.403822 L142.566363,352.038543 L128.323406,352.038543 C120.490067,352.038543 112.462219,352.361959 110.483742,352.757884 L106.887036,353.477226 L106.887036,335.493694 L106.887036,317.510162 L53.943518,317.510162 L1,317.510162 L1,370.45368 L1,423.397198 L18.8396637,423.397198 L36.6793273,423.397198 L36.6793273,388.293344 L36.6793273,353.189489 L71.7831817,353.189489 L106.887036,353.189489 L106.887036,370.45368 L106.887036,387.717871 L117.651834,387.717871 C123.573452,387.717871 131.6013,388.050494 135.491498,388.456778 L142.566363,389.196836 L142.566363,406.327517 L142.566363,423.457047 L160.11829,423.139386 L177.670218,422.821725 L177.670218,229.46279 L177.670218,36.1038543 L170.189068,36.0301938 C166.074436,35.9887597 158.176644,36.1383827 152.637141,36.3628172 M248.453399,194.934408 L248.453399,353.189489 L265.708382,353.189489 L282.964516,353.189489 L283.26031,282.694044 L283.557254,212.198599 L318.948844,211.894749 L354.340435,211.589748 L354.340435,282.390194 L354.340435,353.189489 L371.604626,353.189489 L388.868817,353.189489 L388.868817,300.245971 L388.868817,247.302453 L424.548144,247.302453 L460.227471,247.302453 L460.227471,317.510162 L460.227471,387.717871 L477.480152,387.717871 L494.732834,387.717871 L495.03208,335.062089 L495.331326,282.406308 L510.869097,282.406308 C519.414872,282.406308 527.312663,282.778063 528.421024,283.233838 C530.208444,283.968141 530.43518,285.939712 530.43518,300.785765 L530.43518,317.510162 L548.463599,317.510162 L566.492018,317.510162 L565.727789,391.936088 C565.307694,432.870635 564.963561,488.288687 564.963561,515.087314 L564.963561,563.812615 L547.699371,563.812615 L530.43518,563.812615 L530.43518,616.756133 L530.43518,669.699651 L548.274844,669.699651 L566.114507,669.699651 L566.114507,617.440946 L566.114507,565.183392 L583.299283,564.354711 L600.484058,563.52603 L600.85121,508.711073 C601.052625,478.563193 601.049172,423.209594 600.843153,385.703715 L600.466794,317.510162 L583.291226,317.510162 L566.114507,317.510162 L566.114507,300.245971 L566.114507,282.981781 L550.09564,282.981781 C541.285148,282.981781 533.2573,282.667572 532.255977,282.283156 C530.707954,281.689268 530.43518,279.012168 530.43518,264.443493 L530.43518,247.302453 L495.331326,247.302453 L460.227471,247.302453 L460.227471,230.212055 L460.227471,213.121658 L449.005747,212.378147 C442.834375,211.969561 419.067339,211.632333 396.192286,211.628881 L354.600549,211.623126 L353.768415,194.422237 L352.93513,177.221349 L319.203204,176.87031 C300.651104,176.676951 285.040823,176.087667 284.514841,175.560534 C283.987707,175.0334 283.377706,143.568837 283.156724,105.640561 L282.757346,36.6793273 L265.604797,36.6793273 L248.453399,36.6793273 L248.453399,194.934408 M41.5743009,423.061122 C38.8856909,423.407556 37.6783485,424.247747 37.2686117,426.059336 C36.4928741,429.49491 36.1084581,440.660238 36.4203645,450.732166 L36.6793273,459.076525 L53.368045,459.076525 C62.5468397,459.076525 70.1522911,459.205431 70.2685367,459.364262 C70.3836313,459.523092 70.772651,475.18977 71.1317462,494.18038 L71.7831817,528.708761 L89.3351088,529.026422 L106.887036,529.344083 L106.887036,564.418013 L106.887036,599.491942 L124.068359,599.491942 L141.249681,599.491942 L141.96672,593.449476 C142.360344,590.125544 142.527231,574.199903 142.337325,558.057885 L141.99089,528.708761 L125.145644,528.3911 L108.300398,528.073439 L107.45215,492.999509 L106.603903,457.925579 L89.5112036,457.925579 L72.4185039,457.925579 L72.1008428,440.373652 L71.7831817,422.821725 L58.5473022,422.700876 C51.2675684,422.635272 43.6298905,422.796404 41.5743009,423.061122 M147.625922,599.175432 L142.90244,599.608188 L142.251004,612.833709 C141.89306,620.108839 141.896513,635.879102 142.259061,647.880016 L142.918553,669.699651 L159.995139,669.699651 L177.071726,669.699651 L177.370972,722.355433 L177.670218,775.011214 L274.349685,775.818027 C327.523392,776.262292 406.824726,776.318689 450.575638,775.94348 L530.122123,775.26212 L530.955407,725.645987 C531.413484,698.357057 531.428446,674.606134 530.987634,672.864753 L530.185425,669.699651 L512.471214,669.699651 L494.755853,669.699651 L494.755853,704.808109 L494.755853,739.916567 L354.052699,739.624227 L213.349545,739.331887 L213.044544,704.515769 L212.740695,669.699651 L195.492617,669.699651 L178.245691,669.699651 L178.245691,634.762684 L178.245691,599.824566 L170.476805,599.091413 C162.661881,598.352506 156.356999,598.376676 147.625922,599.175432" id="Shape" stroke="#9BC4BB" stroke-width="2"></path>
    </g>
</svg>

<svg width="602" height="778" xmlns="http://www.w3.org/2000/svg">
    <path d="M178.246 18.264v17.264h70.207V23.605c0-6.56-.329-14.329-.732-17.265L246.99 1h-68.743v17.264m-25.609 18.099l-10.07.406v315.27h-14.244c-7.833 0-15.86.323-17.84.719l-3.596.72V317.51H1v105.887h35.68V353.19h70.207V387.718h10.765c5.921 0 13.95.332 17.84.739l7.074.74v34.26l17.552-.318 17.552-.317V36.104l-7.48-.074c-4.116-.041-12.013.108-17.553.333m95.816 158.571V353.19h34.512l.295-70.495.297-70.495 35.392-.304 35.391-.305v141.6H388.87V247.301h71.358v140.416h34.506l.3-52.656.298-52.656h15.538c8.546 0 16.444.372 17.552.828 1.787.734 2.014 2.706 2.014 17.552v16.724h36.057l-.764 74.426c-.42 40.935-.764 96.353-.764 123.151v48.726H530.435V669.7h35.68V565.183l17.184-.828 17.185-.829.367-54.815c.202-30.148.198-85.501-.008-123.007l-.376-68.194h-34.352v-34.528h-16.02c-8.81 0-16.838-.314-17.839-.699-1.548-.594-1.82-3.27-1.82-17.84v-17.14h-70.209v-34.181l-11.221-.744c-6.172-.408-29.939-.746-52.814-.75l-41.591-.005-.833-17.2-.833-17.202-33.732-.35c-18.552-.194-34.162-.783-34.688-1.31-.527-.528-1.137-31.992-1.358-69.92l-.4-68.962h-34.304v158.255M41.574 423.061c-2.688.347-3.896 1.187-4.305 2.998-.776 3.436-1.16 14.601-.849 24.673l.26 8.345h16.688c9.179 0 16.784.128 16.9.287.116.16.505 15.826.864 34.816l.651 34.529 17.552.317 17.552.318v70.148h34.363l.717-6.043c.393-3.323.56-19.25.37-35.391l-.346-29.35-16.845-.317-16.846-.318-.848-35.073-.848-35.074H72.419l-.318-17.552-.318-17.552-13.236-.121c-7.28-.066-14.917.095-16.973.36m106.052 176.114l-4.724.433-.651 13.226c-.358 7.275-.354 23.045.008 35.046l.66 21.82H177.072l.299 52.655.3 52.656 96.679.807c53.173.444 132.475.5 176.226.125l79.546-.68.833-49.617c.458-27.289.473-51.04.033-52.781l-.803-3.165h-35.429v70.217l-140.703-.293-140.703-.292-.305-34.816-.304-34.816H178.246v-69.875l-7.77-.734c-7.814-.738-14.119-.714-22.85.084" stroke="#9BC4BB" stroke-width="2" fill="none" fill-rule="evenodd"/>
</svg>
